contents/blog/dbt-with-marquez/image.svg

<svg width="100%" height="100%" id="Layer_1" data-name="Layer 1" xmlns="http://www.w3.org/2000/svg" viewBox="0 0 600 435"><defs><style>.cls-1{fill:#cfc8c0;}.cls-2{fill:#010101;}.cls-10,.cls-11,.cls-12,.cls-13,.cls-14,.cls-15,.cls-16,.cls-17,.cls-18,.cls-19,.cls-2,.cls-20,.cls-21,.cls-22,.cls-23,.cls-24,.cls-25,.cls-26,.cls-27,.cls-28,.cls-29,.cls-3,.cls-4,.cls-5,.cls-6,.cls-7,.cls-8,.cls-9{fill-opacity:0.5;}.cls-3{fill:#2a3117;}.cls-4{fill:#767e46;}.cls-5{fill:#1e2a16;}.cls-6{fill:#c3d1a6;}.cls-7{fill:#51647c;}.cls-8{fill:#f6ec1b;}.cls-9{fill:#bbe0c8;}.cls-10{fill:#03858e;}.cls-11{fill:#ffe284;}.cls-12{fill:#4ab970;}.cls-13{fill:#d59164;}.cls-14{fill:#121345;}.cls-15{fill:#e2126f;}.cls-16{fill:#082027;}.cls-17{fill:#79613e;}.cls-18{fill:#f4921f;}.cls-19{fill:#f3c915;}.cls-20{fill:#6acbdb;}.cls-21{fill:#ed2224;}.cls-22{fill:#c54c27;}.cls-23{fill:#250e14;}.cls-24{fill:#055e82;}.cls-25{fill:#fdf6ab;}.cls-26{fill:#b05026;}.cls-27{fill:#f2d0ad;}.cls-28{fill:#fbf5ab;}.cls-29{fill:#f7ee57;}</style></defs><rect class="cls-1" x="-40.8" y="-14.81" width="680" height="445.95"/><path class="cls-2" d="M256.7,394.89l494.7-69.7L690.2-98.11,195.5-28.41Z"/><path class="cls-3" d="M-82.45,395.47l741.2,156.4,103.7-499.8L21.25-102.63Z"/><path class="cls-4" d="M95.2-8-272,224.89l248.2,389.3,367.2-232.9Z"/><path class="cls-2" d="M200.6,291.19,10.2,466.29l59.5,62.9,190.4-175.1Z"/><path class="cls-5" d="M360.4,349l59.5,217.6,265.2-73.1-59.5-217.6Z"/><path class="cls-6" d="M69.7,83.79l-81.6,323,105.4,25.5,81.6-323Z"/><path class="cls-7" d="M120.7,44.69l-15.3,113.9,561,68,15.3-113.9Z"/><path class="cls-8" d="M280.5,345.59l-1.7,15.3,807.5,3.4L1088,349Z"/><path class="cls-9" d="M289,354.09,96.9,605.69l159.8,119,192.1-251.6Z"/><path class="cls-10" d="M-25.5,153.49l-5.1,39.1,309.4,30.6,5.1-39.1Z"/><path class="cls-11" d="M-90.95,282.69l-20.4,81.6,202.3,51,20.4-81.6Z"/><path class="cls-12" d="M78.2,372.79l-124.1,23.8,81.6,421.6,124.1-23.8Z"/><path class="cls-13" d="M59.5-4.61l-273.7,190.4,62.9,86.7,272-190.4Z"/><path class="cls-14" d="M419.9,389.79l-1.7,37.4H678.3l1.7-37.4Z"/><path class="cls-15" d="M30.6-11.41,486.2.49v-15.3L30.6-25Z"/><path class="cls-16" d="M538.9,41.29l255,452.2,171.7-96.9-255-450.5Z"/><path class="cls-17" d="M263.5,155.19l17,163.2,521.9-57.8-17-163.2Z"/><path class="cls-2" d="M207.4,269.09,23.8,500.29l62.9,49.3,183.6-231.2Z"/><path class="cls-18" d="M142.8,43l-1.7,17L442,80.39l1.7-17Z"/><path class="cls-19" d="M783.7,397.44l-365.5,15.3v13.6L783.7,411Z"/><path class="cls-20" d="M317.9,394.89,52.7,420.39l6.8,69.7,265.2-25.5Z"/><path class="cls-2" d="M185.3,262.29l533.8,5.1v-6.8l-533.8-5.1Z"/><path class="cls-21" d="M518.5,226.59l193.8,8.5v-13.6L518.5,213Z"/><path class="cls-22" d="M499.8,3.89,884,70.19l10.2-66.3L510-60.71Z"/><path class="cls-23" d="M49.3,97.39l11.9,28.9,112.2-45.9-11.9-28.9Z"/><path class="cls-24" d="M219.3,12.39l-1.7,27.2L635.8,60l1.7-27.2Z"/><path class="cls-25" d="M93.5,17.49l78.2,18.7,17-73.1-78.2-18.7Z"/><path class="cls-26" d="M59.5,73.59l-494.7-86.7-6.8,40.8,493,86.7Z"/><path class="cls-27" d="M-6.8,155.19l122.4,35.7L134.3,128,11.9,92.29Z"/><path class="cls-28" d="M-11.9-4.61v37.4l205.7-1.7V-6.31Z"/><path class="cls-2" d="M8.5,411.89l-136,115.6L-5.1,668.59,130.9,553Z"/><path class="cls-29" d="M-35.7,400h136v-52.7h-136Z"/></svg>

<?xml version="1.0" encoding="UTF-8" standalone="no"?>
<!DOCTYPE svg PUBLIC "-//W3C//DTD SVG 1.1//EN" "http://www.w3.org/Graphics/SVG/1.1/DTD/svg11.dtd">
<!-- Created with Vectornator (http://vectornator.io/) -->
<svg height="100%" stroke-miterlimit="10" style="fill-rule:nonzero;clip-rule:evenodd;stroke-linecap:round;stroke-linejoin:round;" version="1.1" viewBox="0 0 600 435" width="100%" xml:space="preserve" xmlns="http://www.w3.org/2000/svg" xmlns:vectornator="http://vectornator.io" xmlns:xlink="http://www.w3.org/1999/xlink">
<defs/>
<clipPath id="ArtboardFrame">
<rect height="435" width="600" x="0" y="0"/>
</clipPath>
<g clip-path="url(#ArtboardFrame)" id="Untitled" vectornator:layerName="Untitled">
<path d="M-40.8-14.81L639.2-14.81L639.2-14.81L639.2 431.14L639.2 431.14L-40.8 431.14L-40.8 431.14L-40.8-14.81L-40.8-14.81Z" fill="#cfc8c0" fill-rule="nonzero" opacity="1" stroke="none"/>
<path d="M256.7 394.89L751.4 325.19L690.2-98.11L195.5-28.41L256.7 394.89Z" fill="#010101" fill-rule="nonzero" opacity="1" stroke="none"/>
<path d="M-82.45 395.47L658.75 551.87L762.45 52.07L21.25-102.63L-82.45 395.47Z" fill="#2a3117" fill-rule="nonzero" opacity="1" stroke="none"/>
<path d="M95.2-8L-272 224.89L-23.8 614.19L343.4 381.29L95.2-8Z" fill="#767e46" fill-rule="nonzero" opacity="1" stroke="none"/>
<path d="M200.6 291.19L10.2 466.29L69.7 529.19L260.1 354.09L200.6 291.19Z" fill="#010101" fill-rule="nonzero" opacity="1" stroke="none"/>
<path d="M360.4 349L419.9 566.6L685.1 493.5L625.6 275.9L360.4 349Z" fill="#1e2a16" fill-rule="nonzero" opacity="1" stroke="none"/>
<path d="M69.7 83.79L-11.9 406.79L93.5 432.29L175.1 109.29L69.7 83.79Z" fill="#c3d1a6" fill-rule="nonzero" opacity="1" stroke="none"/>
<path d="M120.7 44.69L105.4 158.59L666.4 226.59L681.7 112.69L120.7 44.69Z" fill="#51647c" fill-rule="nonzero" opacity="1" stroke="none"/>
<path d="M280.5 345.59L278.8 360.89L1086.3 364.29L1088 349L280.5 345.59Z" fill="#f6ec1b" fill-rule="nonzero" opacity="1" stroke="none"/>
<path d="M289 354.09L96.9 605.69L256.7 724.69L448.8 473.09L289 354.09Z" fill="#bbe0c8" fill-rule="nonzero" opacity="1" stroke="none"/>
<path d="M-25.5 153.49L-30.6 192.59L278.8 223.19L283.9 184.09L-25.5 153.49Z" fill="#03858e" fill-rule="nonzero" opacity="1" stroke="none"/>
<path d="M-90.95 282.69L-111.35 364.29L90.95 415.29L111.35 333.69L-90.95 282.69Z" fill="#ffe284" fill-rule="nonzero" opacity="1" stroke="none"/>
<path d="M78.2 372.79L-45.9 396.59L35.7 818.19L159.8 794.39L78.2 372.79Z" fill="#4ab970" fill-rule="nonzero" opacity="1" stroke="none"/>
<path d="M59.5-4.61L-214.2 185.79L-151.3 272.49L120.7 82.09L59.5-4.61Z" fill="#d59164" fill-rule="nonzero" opacity="1" stroke="none"/>
<path d="M419.9 389.79L418.2 427.19L678.3 427.19L680 389.79L419.9 389.79Z" fill="#121345" fill-rule="nonzero" opacity="1" stroke="none"/>
<path d="M30.6-11.41L486.2 0.49L486.2-14.81L30.6-25L30.6-11.41Z" fill="#e2126f" fill-rule="nonzero" opacity="1" stroke="none"/>
<path d="M538.9 41.29L793.9 493.49L965.6 396.59L710.6-53.91L538.9 41.29Z" fill="#082027" fill-rule="nonzero" opacity="1" stroke="none"/>
<path d="M263.5 155.19L280.5 318.39L802.4 260.59L785.4 97.39L263.5 155.19Z" fill="#79613e" fill-rule="nonzero" opacity="1" stroke="none"/>
<path d="M207.4 269.09L23.8 500.29L86.7 549.59L270.3 318.39L207.4 269.09Z" fill="#010101" fill-rule="nonzero" opacity="1" stroke="none"/>
<path d="M142.8 43L141.1 60L442 80.39L443.7 63.39L142.8 43Z" fill="#f4921f" fill-rule="nonzero" opacity="1" stroke="none"/>
<path d="M783.7 397.44L418.2 412.74L418.2 426.34L783.7 411L783.7 397.44Z" fill="#f3c915" fill-rule="nonzero" opacity="1" stroke="none"/>
<path d="M317.9 394.89L52.7 420.39L59.5 490.09L324.7 464.59L317.9 394.89Z" fill="#6acbdb" fill-rule="nonzero" opacity="1" stroke="none"/>
<path d="M185.3 262.29L719.1 267.39L719.1 260.59L185.3 255.49L185.3 262.29Z" fill="#010101" fill-rule="nonzero" opacity="1" stroke="none"/>
<path d="M518.5 226.59L712.3 235.09L712.3 221.49L518.5 213L518.5 226.59Z" fill="#ed2224" fill-rule="nonzero" opacity="1" stroke="none"/>
<path d="M499.8 3.89L884 70.19L894.2 3.89L510-60.71L499.8 3.89Z" fill="#c54c27" fill-rule="nonzero" opacity="1" stroke="none"/>
<path d="M49.3 97.39L61.2 126.29L173.4 80.39L161.5 51.49L49.3 97.39Z" fill="#250e14" fill-rule="nonzero" opacity="1" stroke="none"/>
<path d="M219.3 12.39L217.6 39.59L635.8 60L637.5 32.8L219.3 12.39Z" fill="#055e82" fill-rule="nonzero" opacity="1" stroke="none"/>
<path d="M93.5 17.49L171.7 36.19L188.7-36.91L110.5-55.61L93.5 17.49Z" fill="#fdf6ab" fill-rule="nonzero" opacity="1" stroke="none"/>
<path d="M59.5 73.59L-435.2-13.11L-442 27.69L51 114.39L59.5 73.59Z" fill="#b05026" fill-rule="nonzero" opacity="1" stroke="none"/>
<path d="M-6.8 155.19L115.6 190.89L134.3 128L11.9 92.29L-6.8 155.19Z" fill="#f2d0ad" fill-rule="nonzero" opacity="1" stroke="none"/>
<path d="M-11.9-4.61L-11.9 32.79L193.8 31.09L193.8-6.31L-11.9-4.61Z" fill="#fbf5ab" fill-rule="nonzero" opacity="1" stroke="none"/>
<path d="M8.5 411.89L-127.5 527.49L-5.1 668.59L130.9 553L8.5 411.89Z" fill="#010101" fill-rule="nonzero" opacity="1" stroke="none"/>
<path d="M-35.7 400L100.3 400L100.3 347.3L-35.7 347.3L-35.7 400Z" fill="#f7ee57" fill-rule="nonzero" opacity="1" stroke="none"/>
</g>
</svg>
